mono-repo/projects/front-user/public/icons/email.svg

<svg width="24" height="24" viewBox="0 0 26 24" fill="none" xmlns="http://www.w3.org/2000/svg">
<path d="M25 4.67704V19.3232C25 20.1556 24.7082 20.9538 24.1889 21.5424C23.6696 22.131 22.9652 22.4617 22.2308 22.4617H3.76923C3.03479 22.4617 2.33042 22.131 1.81109 21.5424C1.29176 20.9538 1 20.1556 1 19.3232V4.67704M25 4.67704C25 3.84466 24.7082 3.04638 24.1889 2.45781C23.6696 1.86923 22.9652 1.53857 22.2308 1.53857H3.76923C3.03479 1.53857 2.33042 1.86923 1.81109 2.45781C1.29176 3.04638 1 3.84466 1 4.67704M25 4.67704V5.01599C25.0001 5.55182 24.8791 6.07875 24.6485 6.54658C24.418 7.0144 24.0856 7.40755 23.6831 7.68856L14.4523 14.1259C14.0156 14.4307 13.5129 14.5921 13 14.5921C12.4871 14.5921 11.9844 14.4307 11.5477 14.1259L2.31692 7.68996C1.91436 7.40894 1.58199 7.0158 1.35147 6.54797C1.12095 6.08015 0.999948 5.55322 1 5.01738V4.67704" stroke="#808990" stroke-width="2" stroke-linecap="round" stroke-linejoin="round"/>
</svg>

<svg xmlns="http://www.w3.org/2000/svg" width="24" height="24" fill="none" viewBox="0 0 26 24"><path stroke="#808990" stroke-linecap="round" stroke-linejoin="round" stroke-width="2" d="M25 4.677v14.646c0 .833-.292 1.63-.811 2.22-.52.588-1.224.919-1.958.919H3.769c-.734 0-1.439-.331-1.958-.92-.52-.588-.811-1.386-.811-2.219V4.677m24 0c0-.832-.292-1.63-.811-2.22-.52-.588-1.224-.918-1.958-.918H3.769c-.734 0-1.439.33-1.958.919C1.291 3.046 1 3.845 1 4.677m24 0v.339a3.5 3.5 0 0 1-.352 1.53c-.23.468-.562.862-.965 1.143l-9.23 6.437c-.437.305-.94.466-1.453.466a2.53 2.53 0 0 1-1.452-.466L2.317 7.69a3 3 0 0 1-.966-1.142A3.5 3.5 0 0 1 1 5.018v-.341"></path></svg>
